X:1
T:Title
%%score { ( 1 3 ) | ( 2 4 ) }
L:1/8
Q:1/4=94
M:4/4
K:F
V:1 treble nm="Grand Piano"
V:3 treble 
V:2 bass 
V:4 bass 
V:1
 A3 A BAGF | A2 A2 A4 | c3 c dcBA | G2 d2 c2 B2 | A3 A BAGF | A2 [_Ec]2 [DB]2 [DG]2 | F3 F EEGG | %7
w: J.~M.~Dungan * * * * *|||||||
 F6 z2 | c3 A d c3 | A3 F B A3 | A3 A GGA=B | [Ec]2 [Ed]2 [Fc]2 B2 | A3 A BAGF | A2 [_Ec]2 B2 G2 | %14
w: |||||||
 F3 F EEGG | F6 z2 |] %16
w: ||
V:2
 [F,CF]3 [F,CF] [F,DF][F,CF][F,B,F][F,A,] | [F,CF]2 [F,CF]2 [F,CF]4 | %2
 [F,A,F]3 [F,A,F] [F,B,F][F,A,F][F,G,F][F,F] | [G,=B,F]2[K:bass] [G,,B,F]2 [C,C]4 | %4
 [F,CF]3 [F,CF] [F,DF][F,CF][F,B,F][F,A,] | [F,CF]2 [A,,F,]2 [B,,G,]2 [B,,B,]2 | %6
 [C,A,C]3 [C,A,C] [C,G,C][C,G,C][C,B,C][C,B,C] | [F,A,C]6 z2 | [F,A,F]3 [F,CF] [F,B,F] [F,A,F]3 | %9
 [F,CF]3 [F,A,][K:treble] [F,DF] [F,CF]3 | [G,=B,F]3 [G,B,F] [G,B,F][G,B,F][G,CF][G,DF] | %11
 [C,C]2 [C,B,]2 A,2[K:treble] [CG]2 | [F,CF]3 [F,CF] [F,DF][F,CF][K:bass][F,B,F][F,A,] | %13
 [F,CF]2 [A,,F,]2 G,2 B,2 | [C,A,C]3 [C,A,C] [C,G,C][C,G,C][C,B,C][C,B,C] | [F,A,C]6 z2 |] %16
V:3
 x8 | x8 | x8 | z4 E4 | x8 | x8 | x8 | x8 | x8 | x8 | x8 | x8 | x8 | z4 D4 | x8 | x8 |] %16
V:4
 x8 | x8 | x8 | x2[K:bass] x6 | x8 | x8 | x8 | x8 | x8 | x4[K:treble] x4 | x8 | z4 C,4[K:treble] | %12
 x6[K:bass] x2 | z4 B,,4 | x8 | x8 |] %16

